assets/Woman running/Dark/Flat/woman_running_flat_dark.svg

<svg width="32" height="32" viewBox="0 0 32 32" fill="none" xmlns="http://www.w3.org/2000/svg">
<path d="M18.1058 9.89008C18.2324 9.83686 18.3709 9.81847 18.507 9.8368C18.6431 9.85514 18.7718 9.90954 18.8798 9.99436L21.3028 11.8822C21.3234 12.1937 21.4212 12.586 21.78 12.6099H22.3C22.3 12.6099 22.47 12.9699 22.8 12.8599C23.1006 12.7328 23.3676 12.5377 23.58 12.2899C23.86 11.9599 24.1 11.4199 23.99 11.1499C23.8063 10.8745 23.5681 10.6396 23.29 10.4599L22.59 9.93994L20.3004 8.18555C19.8703 7.84824 19.3559 7.63038 18.8141 7.55739C18.2761 7.48491 17.7285 7.55641 17.2273 7.76446L13.9475 9.06042L14.2363 9.79139L13.8052 9.46289C12.8534 10.712 11.445 11.5326 9.88887 11.7446C8.44014 11.942 6.9736 11.5968 5.7684 10.7824C5.70981 10.4986 5.56892 10.1235 5.2301 9.95992C5.15025 9.90482 5.05272 9.88146 4.95657 9.8944C4.86042 9.90734 4.77254 9.95566 4.7101 10.0299C4.7101 10.0299 4.5201 9.66992 4.1901 9.80992C3.89158 9.96282 3.62908 10.1776 3.4201 10.4399C3.30162 10.6135 3.22466 10.812 3.19518 11.0201C3.16571 11.2282 3.1845 11.4403 3.2501 11.6399C3.395 11.9012 3.5966 12.1268 3.8401 12.2999L4.24425 12.5222C5.95944 13.7711 8.09295 14.3105 10.1993 14.0236C12.353 13.7302 14.303 12.5967 15.6238 10.8711L18.0943 9.89491L18.1058 9.89008Z" fill="#573739"/>
<path d="M17.9201 15.5699L17.4701 15.2799C17.5382 15.4074 17.5955 15.5394 17.6418 15.6745L13.375 19.2734L10.7067 19.2489L10.0501 19.8099C9.57624 20.4992 9.22131 21.2632 9.00015 22.0699L6.90015 27.6899L8.31015 28.6199L11.8701 22.3799L15.6294 19.5033L17.6401 22.3299C17.8674 22.6473 18.1826 22.8912 18.5469 23.0316C18.9111 23.172 19.3085 23.2027 19.6901 23.1199L25.8901 21.7299L25.2801 19.9999L19.8301 20.4799L17.7857 16.4604C17.7771 16.1934 17.7288 15.9285 17.6418 15.6745L17.9201 15.5699Z" fill="#573739"/>
<path d="M13.7301 7L14.7801 9.05L12.6801 10.15L11.6301 8.05L13.7301 7Z" fill="#452829"/>
<path d="M27.3635 23.9119L25 21.7981L25.0847 19.9366L26.2292 19.5289C26.3509 19.4851 26.485 19.4913 26.6022 19.5459C26.7195 19.6006 26.8103 19.6994 26.855 19.8208C26.855 19.8208 27.9471 22.8156 28.1183 23.4515C28.1851 23.6661 27.5642 24.0899 27.3635 23.9119Z" fill="#533566"/>
<path d="M4.00016 27.1499H7.19016L8.30016 28.6599L7.76016 29.6599C7.73073 29.7171 7.6901 29.7678 7.64069 29.809C7.59128 29.8502 7.53409 29.8811 7.47252 29.8997C7.41095 29.9184 7.34626 29.9245 7.2823 29.9176C7.21833 29.9108 7.15639 29.8912 7.10016 29.8599C7.10016 29.8599 4.30016 28.3599 3.74016 27.9999C3.56016 27.8799 3.74016 27.1499 4.00016 27.1499Z" fill="#533566"/>
<path d="M14.6401 18.2099L17.1401 21.6499L19.3801 20.2299C19.6416 20.0596 19.8265 19.7942 19.8956 19.4899C19.9647 19.1856 19.9125 18.8664 19.7501 18.5999L17.8201 15.4099L14.6401 18.2099Z" fill="#636363"/>
<path d="M10.7012 19.2388L13.2102 21.6999C13.3397 21.8281 13.4954 21.9267 13.6666 21.989C13.8379 22.0512 14.0206 22.0755 14.2021 22.0603C14.3837 22.0451 14.5598 21.9907 14.7183 21.9009C14.8768 21.811 15.0139 21.6879 15.1202 21.5399L17.4102 18.3499C17.4102 18.3499 18.4102 16.9099 18.0602 16.0099C17.9765 15.645 17.8125 15.3034 17.5802 15.0099L12.7402 17.4899" fill="#9B9B9B"/>
<path opacity="0.51" d="M4.79281 10.0423C4.83846 10.0941 4.83349 10.1731 4.7817 10.2188C4.58325 10.3937 4.41135 10.5966 4.27139 10.821C4.24447 10.8932 4.24641 10.9481 4.25844 10.9888C4.27136 11.0324 4.29893 11.0695 4.33517 11.0981C4.37215 11.1272 4.41386 11.144 4.44688 11.1491C4.46367 11.1518 4.47306 11.1509 4.47722 11.1502C4.5742 11.0555 4.66667 10.9563 4.75431 10.853C4.77454 10.817 4.79533 10.7893 4.81474 10.7682C4.91523 10.6586 4.99775 10.6998 5.03538 10.7454C5.07302 10.7909 5.07365 10.8566 5.03688 10.9028C5.01257 10.9334 4.98787 10.9636 4.96278 10.9936C4.9599 10.9995 4.95697 11.0059 4.954 11.0128C4.91647 11.1007 4.87455 11.2748 4.89382 11.5976C4.89793 11.6665 4.8454 11.7257 4.77649 11.7298C4.70758 11.7339 4.64838 11.6814 4.64426 11.6125C4.63818 11.5105 4.63759 11.4199 4.64125 11.3393C4.57237 11.4029 4.47707 11.4069 4.40839 11.3962C4.3311 11.3841 4.24968 11.349 4.18041 11.2944C4.1104 11.2392 4.0486 11.1607 4.01871 11.0597C3.98845 10.9574 3.99376 10.8416 4.04298 10.7186C4.04566 10.7119 4.04891 10.7054 4.0527 10.6993C4.20668 10.4501 4.39662 10.225 4.61638 10.0312C4.64989 10.0017 4.69479 9.99335 4.73468 10.0052C4.75643 10.0116 4.7767 10.0241 4.79281 10.0423Z" fill="#3D2123"/>
<path d="M12.74 17.52L17.92 15.57C17.4467 14.7133 16.3999 12.6869 15.9993 11.4343C15.9606 9.25221 14.7302 8.69996 14.7302 8.69996C14.3362 8.55681 13.9114 8.52026 13.4987 8.59401C13.0861 8.66776 12.7002 8.84919 12.3802 9.11996C12.0938 9.34395 11.8609 9.62886 11.6983 9.95403C11.6188 10.113 11.5571 10.2797 11.514 10.451L11.51 10.45C11.2049 11.6485 11.1568 12.898 11.3688 14.1165C11.5808 15.335 12.0481 16.4949 12.74 17.52Z" fill="#8B62BF"/>
<path d="M14.3373 11.2567C13.5371 11.4711 12.7146 10.9962 12.5002 10.196C12.2858 9.39581 12.7607 8.57331 13.5609 8.35889L16.9416 7.45303L17.7181 10.3508L14.3373 11.2567Z" fill="#A17FD5"/>
<path d="M12.7022 3.22998L11.5322 3.22001C10.5522 3.22001 9.74216 4.00725 9.73216 4.99379V5.49204C9.73216 5.65148 9.69216 5.80096 9.61216 5.94047C9.37216 6.33907 9.26216 6.37893 9.25216 6.57823C9.22216 6.88714 9.51216 6.96686 9.65216 6.98679C9.69216 6.98679 9.72216 7.02665 9.72216 7.06651C9.74216 8.17263 9.94216 8.95987 11.2622 8.96983C12.0722 8.9798 13.3522 8.5812 13.7222 7.63452L14.0722 6.359L14.4722 5.02368C14.4822 4.04711 13.6822 3.23994 12.7022 3.22998Z" fill="#573739"/>
<path d="M10.8424 7.06738C10.9046 7.0896 10.937 7.15804 10.9148 7.22024C10.7942 7.55788 10.4386 7.74646 10.0919 7.62265C10.0297 7.60043 9.9973 7.532 10.0195 7.46979C10.0417 7.40758 10.1102 7.37517 10.1724 7.39738C10.3857 7.47357 10.6101 7.36215 10.6895 7.13979C10.7117 7.07758 10.7802 7.04517 10.8424 7.06738Z" fill="#290118"/>
<path d="M10.2984 4.68306C10.3982 4.67221 10.4918 4.67367 10.5777 4.68307C10.6635 4.69245 10.7414 4.70971 10.8103 4.73044C10.9175 4.76272 11.0032 4.80354 11.0627 4.83671C11.0925 4.85333 11.1159 4.86812 11.1323 4.87913C11.1405 4.88464 11.147 4.88921 11.1517 4.89261L11.1574 4.89679L11.1592 4.89817L11.1601 4.89887C11.2159 4.94205 11.2263 5.02242 11.1831 5.07819C11.14 5.13393 11.0598 5.14415 11.0041 5.10106V5.10106L11.002 5.09955C10.9997 5.09785 10.9956 5.09502 10.9901 5.09127C10.9789 5.08378 10.9614 5.07268 10.9383 5.05976C10.8928 5.03441 10.8261 5.00242 10.7421 4.97665L10.5443 4.93635C10.4771 4.92938 10.404 4.92848 10.326 4.93697C10.2558 4.94459 10.1928 4.89393 10.1852 4.82381C10.1776 4.7537 10.2282 4.69068 10.2984 4.68306Z" fill="black"/>
<path d="M10.1422 5.56001C10.1422 5.56001 10.3622 5.19001 10.8222 5.27001C11.0022 5.30001 11.1322 5.40001 11.2122 5.49001C11.2822 5.56001 11.2722 5.68001 11.1822 5.74001L10.8622 5.97001L10.1422 5.56001Z" fill="black"/>
<path d="M10.1722 6.02001C10.1022 6.02001 10.0422 5.95001 10.0422 5.87001V5.86001C10.0422 5.53001 10.3322 5.35001 10.6022 5.35001C10.8722 5.35001 11.1522 5.54001 11.1522 5.87001V5.88001C11.1522 5.96001 11.0922 6.03001 11.0222 6.03001L10.1722 6.02001Z" fill="white"/>
<path d="M10.0722 6.03004C10.0622 5.98004 10.0522 5.93004 10.0522 5.88004C10.0522 5.64004 10.2022 5.45004 10.3922 5.45004C10.5822 5.45004 10.7322 5.65004 10.7222 5.88004C10.7222 5.93004 10.7122 5.99004 10.7022 6.03004H10.0722Z" fill="#7D4533"/>
<path d="M10.1822 6.02001C10.1522 5.98001 10.1422 5.92001 10.1422 5.87001C10.1422 5.73001 10.2322 5.62001 10.3422 5.63001C10.4522 5.63001 10.5322 5.74001 10.5322 5.88001C10.5322 5.94001 10.5122 5.99001 10.4922 6.03001L10.1822 6.02001Z" fill="black"/>
<path d="M10.2836 5.69196C10.284 5.64778 10.2574 5.61176 10.2243 5.6115C10.1911 5.61124 10.164 5.64685 10.1636 5.69103C10.1633 5.73522 10.1899 5.77124 10.223 5.7715C10.2562 5.77176 10.2833 5.73615 10.2836 5.69196Z" fill="white"/>
<path d="M9.49216 3.01002C9.66216 2.40002 10.2822 1.82002 10.8822 2.05002C11.5522 2.28002 11.6722 2.46002 12.4922 2.23002C13.7022 1.88002 15.4822 2.09001 15.5022 4.04001C15.5122 4.72001 15.4522 5.23001 15.3622 5.61001C15.2822 5.93001 15.3922 6.27002 15.6322 6.49002C15.6922 6.54002 15.7522 6.60002 15.8022 6.67002C16.0922 7.01002 16.2122 7.47002 16.1222 7.91002C15.9322 8.86002 15.0522 9.35002 14.2422 9.17002C14.1922 9.16002 14.1522 9.15002 14.1022 9.13002C14.0622 9.12002 14.0222 9.11002 13.9822 9.09002C13.1122 8.81002 12.5522 7.98002 12.5822 7.07002L12.6122 5.30001C12.6122 5.05001 12.5322 4.81002 12.3922 4.63002C12.2622 4.47002 12.0922 4.37001 11.8922 4.34001C11.7422 4.31001 11.5622 4.33002 11.4122 4.40002C11.1722 4.51002 10.8922 4.56002 10.6022 4.52002C10.4622 4.50002 10.3222 4.47002 10.1922 4.41002C10.0322 4.34002 9.90216 4.27002 9.81216 4.17002C9.50216 3.88002 9.37216 3.44002 9.49216 3.01002Z" fill="black"/>
</svg>

<svg xmlns="http://www.w3.org/2000/svg" width="32" height="32" fill="none"><path fill="#573739" d="M18.106 9.89a.77.77 0 0 1 .774.104l2.423 1.888c.02.312.118.704.477.728h.52s.17.36.5.25c.3-.127.568-.322.78-.57.28-.33.52-.87.41-1.14a2.42 2.42 0 0 0-.7-.69l-.7-.52-2.29-1.754a3.078 3.078 0 0 0-3.073-.422l-3.28 1.296.29.731-.432-.328a5.93 5.93 0 0 1-8.037 1.32c-.058-.284-.2-.66-.538-.823a.39.39 0 0 0-.52.07s-.19-.36-.52-.22a2.36 2.36 0 0 0-.77.63 1.37 1.37 0 0 0-.17 1.2 2 2 0 0 0 .59.66l.404.222a8.23 8.23 0 0 0 11.38-1.65l2.47-.977.012-.005ZM17.92 15.57l-.45-.29c.068.127.126.26.172.395l-4.267 3.598-2.668-.024-.657.56A7.481 7.481 0 0 0 9 22.07l-2.1 5.62 1.41.93 3.56-6.24 3.76-2.876 2.01 2.827a2 2 0 0 0 2.05.79l6.2-1.39-.61-1.73-5.45.48-2.044-4.02a2.693 2.693 0 0 0-.144-.786l.278-.104Z"/><path fill="#452829" d="m13.73 7 1.05 2.05-2.1 1.1-1.05-2.1L13.73 7Z"/><path fill="#533566" d="M27.363 23.912 25 21.798l.085-1.861 1.144-.408a.49.49 0 0 1 .626.292s1.092 2.995 1.263 3.63c.067.215-.554.639-.755.46ZM4 27.15h3.19l1.11 1.51-.54 1a.48.48 0 0 1-.66.2S4.3 28.36 3.74 28c-.18-.12 0-.85.26-.85Z"/><path fill="#636363" d="m14.64 18.21 2.5 3.44 2.24-1.42a1.2 1.2 0 0 0 .37-1.63l-1.93-3.19-3.18 2.8Z"/><path fill="#9B9B9B" d="m10.701 19.239 2.51 2.46a1.262 1.262 0 0 0 1.91-.16l2.29-3.19s1-1.44.65-2.34a2.519 2.519 0 0 0-.48-1l-4.84 2.48"/><path fill="#3D2123" d="M4.793 10.042c.045.052.04.131-.011.177-.199.175-.37.378-.51.602a.26.26 0 0 0-.014.168.22.22 0 0 0 .077.11c.037.028.079.045.112.05a.095.095 0 0 0 .03.001c.097-.095.19-.194.277-.297a.45.45 0 0 1 .06-.085c.101-.11.184-.068.221-.023a.125.125 0 0 1 .002.158l-.074.09a.444.444 0 0 0-.009.02c-.038.088-.08.262-.06.585a.125.125 0 0 1-.25.014 2.61 2.61 0 0 1-.003-.273c-.069.064-.164.068-.233.057a.501.501 0 0 1-.39-.336.514.514 0 0 1 .035-.36c.154-.25.344-.475.563-.669a.125.125 0 0 1 .177.011Z" opacity=".51"/><path fill="#8B62BF" d="m12.74 17.52 5.18-1.95c-.473-.857-1.52-2.883-1.92-4.136-.04-2.182-1.27-2.734-1.27-2.734a2.38 2.38 0 0 0-2.35.42 2.45 2.45 0 0 0-.866 1.331l-.004-.001a8.77 8.77 0 0 0 1.23 7.07Z"/><path fill="#A17FD5" d="M14.337 11.257a1.5 1.5 0 0 1-.776-2.898l3.38-.906.777 2.898-3.38.906Z"/><path fill="#573739" d="m12.702 3.23-1.17-.01c-.98 0-1.79.787-1.8 1.774v.498c0 .16-.04.309-.12.448-.24.4-.35.439-.36.638-.03.31.26.389.4.409.04 0 .07.04.07.08.02 1.106.22 1.893 1.54 1.903.81.01 2.09-.389 2.46-1.335l.35-1.276.4-1.335a1.79 1.79 0 0 0-1.77-1.794Z"/><path fill="#290118" d="M10.842 7.067a.12.12 0 0 1 .073.153.64.64 0 0 1-.823.403.12.12 0 1 1 .08-.226.402.402 0 0 0 .518-.257.12.12 0 0 1 .152-.073Z"/><path fill="#000" d="M10.298 4.683a1.286 1.286 0 0 1 .854.21l.005.004.002.001h.001a.128.128 0 0 1-.156.203l-.002-.001a.465.465 0 0 0-.064-.04 1.021 1.021 0 0 0-.196-.083l-.198-.04a1.031 1.031 0 0 0-.218 0 .128.128 0 1 1-.028-.254ZM10.142 5.56s.22-.37.68-.29c.18.03.31.13.39.22.07.07.06.19-.03.25l-.32.23-.72-.41Z"/><path fill="#fff" d="M10.172 6.02c-.07 0-.13-.07-.13-.15v-.01c0-.33.29-.51.56-.51.27 0 .55.19.55.52v.01c0 .08-.06.15-.13.15l-.85-.01Z"/><path fill="#7D4533" d="M10.072 6.03c-.01-.05-.02-.1-.02-.15 0-.24.15-.43.34-.43.19 0 .34.2.33.43 0 .05-.01.11-.02.15h-.63Z"/><path fill="#000" d="M10.182 6.02a.26.26 0 0 1-.04-.15c0-.14.09-.25.2-.24.11 0 .19.11.19.25 0 .06-.02.11-.04.15l-.31-.01Z"/><path fill="#fff" d="M10.284 5.692c0-.044-.027-.08-.06-.08s-.06.035-.06.079.026.08.059.08.06-.035.06-.079Z"/><path fill="#000" d="M9.492 3.01c.17-.61.79-1.19 1.39-.96.67.23.79.41 1.61.18 1.21-.35 2.99-.14 3.01 1.81.01.68-.05 1.19-.14 1.57-.08.32.03.66.27.88.06.05.12.11.17.18.29.34.41.8.32 1.24a1.57 1.57 0 0 1-2.02 1.22c-.04-.01-.08-.02-.12-.04a2.039 2.039 0 0 1-1.4-2.02l.03-1.77c0-.25-.08-.49-.22-.67a.782.782 0 0 0-.5-.29.804.804 0 0 0-.48.06c-.24.11-.52.16-.81.12-.14-.02-.28-.05-.41-.11-.16-.07-.29-.14-.38-.24-.31-.29-.44-.73-.32-1.16Z"/></svg>
